src/images/about/Email.svg

<?xml version="1.0" encoding="UTF-8"?>
<svg width="20px" height="20px" viewBox="0 0 20 20" version="1.1" xmlns="http://www.w3.org/2000/svg" xmlns:xlink="http://www.w3.org/1999/xlink">
    <!-- Generator: Sketch 46.2 (44496) - http://www.bohemiancoding.com/sketch -->
    <title>Email</title>
    <desc>Created with Sketch.</desc>
    <defs></defs>
    <g id="About-Us" stroke="none" stroke-width="1" fill="none" fill-rule="evenodd">
        <g id="About-Us-v2" transform="translate(-783.000000, -3146.000000)" fill-rule="nonzero">
            <g id="ChampionFX-Management" transform="translate(185.000000, 2366.000000)">
                <g id="Athol-Nourse" transform="translate(0.000000, 563.000000)">
                    <g id="Black-Line" transform="translate(0.000000, 198.000000)">
                        <g id="Email" transform="translate(598.000000, 19.000000)">
                            <path d="M18,0 L2,0 C0.9,0 0,0.9 0,2 L0,18 C0,19.1 0.9,20 2,20 L18,20 C19.1,20 20,19.1 20,18 L20,2 C20,0.9 19.1,0 18,0 Z" id="Shape" fill="#FFFFFF"></path>
                            <path d="M17.5,10.6406167 L17.5,15.9804012 C17.5,16.8238073 16.798737,17.5 15.942599,17.5 L5.06583855,17.4999996 C4.75073094,17.4995988 4.44446289,17.406006 4.186702,17.2334477 L4.01848205,17.1099919 C3.69020832,16.8232025 3.50113128,16.4133844 3.50001006,15.9804012 L3.50001517,10.6487036 C3.49827088,10.2629118 3.64682312,9.89270533 3.91272047,9.61151521 C3.93748283,9.57497581 3.96623162,9.54062538 3.99887014,9.50870618 L10.042233,3.68139727 C10.2945602,3.43953424 10.6948759,3.43953424 10.9482745,3.68242739 L17.0212645,9.54107158 C17.3321925,9.84661575 17.4992476,10.2337171 17.5,10.6406167 Z M5.39586084,9.97205122 L10.5042217,14.8939583 L15.6033162,9.97205122 L10.5042217,5.05014416 L5.39586084,9.97205122 Z M7.92068941,14.2112078 L5.84915353,16.2086861 L10.0011214,16.2086861 L7.92068941,14.2112078 Z M15.1527533,16.2086861 L13.0728603,14.2059649 L10.9971549,16.2086861 L15.1527533,16.2086861 Z M6.98511101,13.3061393 L4.81118807,11.2099343 L4.81118807,15.4023442 L6.98511101,13.3061393 Z M16.1978867,11.1997371 L14.0134755,13.3060553 L16.1978856,15.4113905 L16.1978867,11.1997371 Z" id="Shape" fill="#000000"></path>
                            <path d="M10.5140789,7.00003301 L10.5000165,7.00003301 C9.70192894,7.00002424 8.93673252,7.31802266 8.37372049,7.88367381 C7.81070846,8.44932495 7.49629197,9.21600013 7.50003301,10.0140789 C7.50753296,11.6603199 8.88846287,13 10.5778286,13 L10.6875155,13 C10.8946211,13 11.0625134,12.8321077 11.0625134,12.6250021 C11.0625134,12.4178964 10.8946211,12.2500041 10.6875155,12.2500041 L10.5778286,12.2500041 C9.3000231,12.2500041 8.25565385,11.2450097 8.25002888,10.0103289 C8.24728564,9.41181036 8.48312564,8.83686436 8.90537787,8.41267681 C9.3276301,7.98848926 9.90149163,7.75002259 10.5000165,7.75002888 L10.5103289,7.75002888 C11.7450097,7.75565385 12.7500041,8.8000231 12.7500041,10.0778286 L12.7500041,10.9375113 C12.7500041,11.144617 12.5821118,11.3125093 12.3750062,11.3125093 C12.1679005,11.3125093 12.0000083,11.144617 12.0000083,10.9375113 L12.0000083,10.0000165 C12.002329,9.31286597 11.5388338,8.71144088 10.8737666,8.53862056 C10.2086994,8.36580023 9.51104442,8.66549589 9.17854277,9.26684761 C8.84604111,9.86819933 8.96317677,10.6184121 9.46316936,11.089781 C9.96316195,11.5611499 10.7189704,11.6339068 11.2996996,11.266572 C11.463245,11.7984506 11.9910682,12.1308537 12.5414026,12.0485498 C13.0917369,11.9662458 13.4992176,11.4939655 13.5,10.9375113 L13.5,10.0778286 C13.5,8.38846287 12.1603199,7.00753296 10.5140789,7.00003301 Z M10.5000165,10.7500124 C10.0858052,10.7500124 9.75002063,10.4142278 9.75002063,10.0000165 C9.75002063,9.58580522 10.0858052,9.25002063 10.5000165,9.25002063 C10.9142278,9.25002063 11.2500124,9.58580522 11.2500124,10.0000165 C11.2500124,10.4142278 10.9142278,10.7500124 10.5000165,10.7500124 Z" id="Shape" fill="#000000"></path>
                        </g>
                    </g>
                </g>
            </g>
        </g>
    </g>
</svg>

<svg width="20" height="20" viewBox="0 0 20 20" xmlns="http://www.w3.org/2000/svg"><title>Email</title><g fill-rule="nonzero" fill="none"><path d="M18 0H2C.9 0 0 .9 0 2v16c0 1.1.9 2 2 2h16c1.1 0 2-.9 2-2V2c0-1.1-.9-2-2-2z" fill="#FFF"/><path d="M17.5 10.64v5.34c0 .844-.701 1.52-1.557 1.52H5.066c-.315 0-.622-.094-.88-.267l-.168-.123a1.504 1.504 0 0 1-.518-1.13V10.65a1.5 1.5 0 0 1 .413-1.037.668.668 0 0 1 .086-.103l6.043-5.828a.655.655 0 0 1 .906.001l6.073 5.86c.311.305.478.692.479 1.099zM5.396 9.973l5.108 4.922 5.1-4.922-5.1-4.922-5.108 4.922zm2.525 4.24l-2.072 1.997h4.152l-2.08-1.998zm7.232 1.997l-2.08-2.003-2.076 2.003h4.156zm-8.168-2.903L4.811 11.21v4.192l2.174-2.096zm9.213-2.106l-2.185 2.106 2.185 2.105V11.2z" fill="#000"/><path d="M10.514 7H10.5a3 3 0 0 0-3 3.014C7.508 11.66 8.888 13 10.578 13h.11a.375.375 0 0 0 0-.75h-.11c-1.278 0-2.322-1.005-2.328-2.24a2.25 2.25 0 0 1 2.25-2.26h.01c1.235.006 2.24 1.05 2.24 2.328v.86a.375.375 0 1 1-.75 0V10a1.505 1.505 0 1 0-.7 1.267 1.125 1.125 0 0 0 2.2-.33v-.86c0-1.689-1.34-3.07-2.986-3.077zm-.014 3.75a.75.75 0 1 1 0-1.5.75.75 0 0 1 0 1.5z" fill="#000"/></g></svg>
